Newaita-dark/actions/24/mesh-gradient.svg

<?xml version="1.0" encoding="UTF-8"?>
<svg xmlns="http://www.w3.org/2000/svg" xmlns:xlink="http://www.w3.org/1999/xlink" width="24pt" height="24pt" viewBox="0 0 24 24" version="1.1">
<g id="surface1">
<path style=" stroke:none;fill-rule:nonzero;fill:rgb(74.117649%,74.117649%,74.117649%);fill-opacity:0.588235;" d="M 6.996094 3.585938 L 20.414062 7.183594 L 16.820312 20.601562 L 3.398438 17.007812 Z M 6.996094 3.585938 "/>
<path style=" stroke:none;fill-rule:nonzero;fill:rgb(14.901961%,65.098041%,60.392159%);fill-opacity:1;" d="M 2.480469 1.179688 C 1.65625 1.179688 0.992188 1.84375 0.992188 2.667969 L 0.992188 6.636719 C 0.992188 7.460938 1.65625 8.125 2.480469 8.125 L 6.449219 8.125 C 7.273438 8.125 7.9375 7.460938 7.9375 6.636719 L 7.9375 2.667969 C 7.9375 1.84375 7.273438 1.179688 6.449219 1.179688 Z M 3.472656 2.667969 L 5.457031 2.667969 C 6.007812 2.667969 6.449219 3.109375 6.449219 3.660156 L 6.449219 5.644531 C 6.449219 6.195312 6.007812 6.636719 5.457031 6.636719 L 3.472656 6.636719 C 2.921875 6.636719 2.480469 6.195312 2.480469 5.644531 L 2.480469 3.660156 C 2.480469 3.109375 2.921875 2.667969 3.472656 2.667969 Z M 3.472656 2.667969 "/>
<path style=" stroke:none;fill-rule:nonzero;fill:rgb(14.901961%,65.098041%,60.392159%);fill-opacity:1;" d="M 17.363281 1.179688 C 16.539062 1.179688 15.875 1.84375 15.875 2.667969 L 15.875 6.636719 C 15.875 7.460938 16.539062 8.125 17.363281 8.125 L 21.335938 8.125 C 22.160156 8.125 22.824219 7.460938 22.824219 6.636719 L 22.824219 2.667969 C 22.824219 1.84375 22.160156 1.179688 21.335938 1.179688 Z M 18.355469 2.667969 L 20.339844 2.667969 C 20.890625 2.667969 21.335938 3.109375 21.335938 3.660156 L 21.335938 5.644531 C 21.335938 6.195312 20.890625 6.636719 20.339844 6.636719 L 18.355469 6.636719 C 17.808594 6.636719 17.363281 6.195312 17.363281 5.644531 L 17.363281 3.660156 C 17.363281 3.109375 17.808594 2.667969 18.355469 2.667969 Z M 18.355469 2.667969 "/>
<path style=" stroke:none;fill-rule:nonzero;fill:rgb(14.901961%,65.098041%,60.392159%);fill-opacity:1;" d="M 17.363281 16.0625 C 16.539062 16.0625 15.875 16.726562 15.875 17.550781 L 15.875 21.523438 C 15.875 22.347656 16.539062 23.011719 17.363281 23.011719 L 21.335938 23.011719 C 22.160156 23.011719 22.824219 22.347656 22.824219 21.523438 L 22.824219 17.550781 C 22.824219 16.726562 22.160156 16.0625 21.335938 16.0625 Z M 18.355469 17.550781 L 20.339844 17.550781 C 20.890625 17.550781 21.335938 17.996094 21.335938 18.542969 L 21.335938 20.53125 C 21.335938 21.078125 20.890625 21.523438 20.339844 21.523438 L 18.355469 21.523438 C 17.808594 21.523438 17.363281 21.078125 17.363281 20.53125 L 17.363281 18.542969 C 17.363281 17.996094 17.808594 17.550781 18.355469 17.550781 Z M 18.355469 17.550781 "/>
<path style=" stroke:none;fill-rule:nonzero;fill:rgb(14.901961%,65.098041%,60.392159%);fill-opacity:1;" d="M 2.480469 16.0625 C 1.65625 16.0625 0.992188 16.726562 0.992188 17.550781 L 0.992188 21.523438 C 0.992188 22.347656 1.65625 23.011719 2.480469 23.011719 L 6.449219 23.011719 C 7.273438 23.011719 7.9375 22.347656 7.9375 21.523438 L 7.9375 17.550781 C 7.9375 16.726562 7.273438 16.0625 6.449219 16.0625 Z M 3.472656 17.550781 L 5.457031 17.550781 C 6.007812 17.550781 6.449219 17.996094 6.449219 18.542969 L 6.449219 20.53125 C 6.449219 21.078125 6.007812 21.523438 5.457031 21.523438 L 3.472656 21.523438 C 2.921875 21.523438 2.480469 21.078125 2.480469 20.53125 L 2.480469 18.542969 C 2.480469 17.996094 2.921875 17.550781 3.472656 17.550781 Z M 3.472656 17.550781 "/>
</g>
</svg>

<svg xmlns="http://www.w3.org/2000/svg" width="32" height="32" viewBox="0 0 24 24"><path d="M6.996 3.586l13.418 3.598-3.594 13.418-13.422-3.594zm0 0" fill="#bdbdbd" fill-opacity=".588"/><path d="M2.48 1.18c-.824 0-1.488.664-1.488 1.488v3.969c0 .824.664 1.488 1.488 1.488h3.97c.823 0 1.487-.664 1.487-1.488V2.668c0-.824-.664-1.488-1.488-1.488zm.993 1.488h1.984c.55 0 .992.441.992.992v1.985c0 .55-.441.992-.992.992H3.473a.989.989 0 0 1-.993-.992V3.66c0-.55.442-.992.993-.992zm0 0M17.363 1.18c-.824 0-1.488.664-1.488 1.488v3.969c0 .824.664 1.488 1.488 1.488h3.973c.824 0 1.488-.664 1.488-1.488V2.668c0-.824-.664-1.488-1.488-1.488zm.992 1.488h1.985c.55 0 .996.441.996.992v1.985c0 .55-.445.992-.996.992h-1.985a.991.991 0 0 1-.992-.992V3.66c0-.55.446-.992.992-.992zm0 0M17.363 16.063c-.824 0-1.488.664-1.488 1.488v3.972c0 .825.664 1.489 1.488 1.489h3.973c.824 0 1.488-.664 1.488-1.489v-3.972c0-.824-.664-1.488-1.488-1.488zm.992 1.488h1.985c.55 0 .996.445.996.992v1.988a.994.994 0 0 1-.996.992h-1.985a.994.994 0 0 1-.992-.992v-1.988c0-.547.446-.992.992-.992zm0 0M2.48 16.063c-.824 0-1.488.664-1.488 1.488v3.972c0 .825.664 1.489 1.488 1.489h3.97c.823 0 1.487-.664 1.487-1.489v-3.972c0-.824-.664-1.488-1.488-1.488zm.993 1.488h1.984c.55 0 .992.445.992.992v1.988a.991.991 0 0 1-.992.992H3.473a.991.991 0 0 1-.993-.992v-1.988c0-.547.442-.992.993-.992zm0 0" fill="#26a69a"/></svg>
